!!!COA:	Josquin des Prez
!!!CDT:	~1450-1521/08/27
!!!OPR:	Missa Ad fugam
!!!ONM:	5
!!!OTL:	Agnus Dei (version II)
!!!AGN:	Mass; Agnus Dei
!!!SCT:	NJE 12.1
!!!SCA:	New Josquin Edition 12.1
!!!voices:	4
!!!voices-OPR:	4
**kern	**kern	**kern	**kern
*staff4	*staff3	*staff2	*staff1
*Ivox	*Ivox	*Ivox	*Ivox
*I"Bassus	*I"Tenor	*I"Altus	*I"Superius
*I'B	*I'T	*I'A	*I'S
*>[A,B,A]	*>[A,B,A]	*>[A,B,A]	*>[A,B,A]
*>A	*>A	*>A	*>A
*clefF4	*clefGv2	*clefGv2	*clefG2
*k[b-]	*k[b-]	*k[b-]	*k[b-]
*M3/1	*M3/1	*M3/1	*M3/1
*met(O)	*met(O)	*met(O)	*met(O)
!!section: Agnus Dei I/III
!!!OMD: Agnus Dei I/III
=1-	=1-	=1-	=1-
!	!	!	!LO:TX:Z=8:t=[Canon at the lower fifth]
0G	0.r	1.G	0g
.	.	2A/	.
1E	.	2.B-\	1g
.	.	4c\	.
=2	=2	=2	=2
1.F	0c	0A	2a/
.	.	.	1a
2G\	.	.	4g/
.	.	.	4f/
1A	1c	2r	1e
.	.	2A/	.
=3	=3	=3	=3
2r	2d\	2.B-\	1d
1D	1d	.	.
.	.	4A/	.
.	.	2F/	1r
1G	4c\	2G/	.
.	4B-\	.	.
.	1A	1D	1a
2F#i\	.	.	.
=4	=4	=4	=4
1G	1G	2d\	1b-
.	.	2g\	.
2A\	1r	2f\	2cc\
2B-\	.	1d	2.dd\
1G	1d	.	.
.	.	.	4cc\
.	.	[2g\	4b-\
.	.	.	4a/
=5	=5	=5	=5
2.c\	1e	4g\]	1g
.	.	4f\	.
.	.	4e\	.
4B-\	.	4d\	.
2A\	2f\	2c\	2a/
2G\	2.g\	2d\	2b-\
2.c\	.	2e\	1g
.	4f\	.	.
.	4e\	[2c\	.
4B-\	4d\	.	.
=6	=6	=6	=6
4A\	1c	2c\]	2r
4G\	.	.	.
1F	.	1A	2a/
.	2d\	.	2f/
2E\	2e\	2B-\	2g/
1A	1c	2c\	1e
.	.	[2A/	.
=7	=7	=7	=7
2D\	2r	2A/]	1d
1G	2d\	2B-\	.
.	2B-\	2G/	1r
2C/	2c\	1g	.
1D	1A	.	1a
.	.	2f#i\	.
=8	=8	=8	=8
2r	1G	2.g\	1b-
2G\	.	.	.
.	.	4f\	.
2A\	1r	2e\	2cc\
2B-\	.	2d\	2.dd\
1G	1d	2.g\	.
.	.	.	4cc\
.	.	.	4b-\
.	.	4f\	4a/
=9	=9	=9	=9
2.c\	1e	4e\	1g
.	.	4d\	.
.	.	1c	.
4B-\	.	.	.
2A\	2f\	.	1r
2G\	2.g\	2d\	.
2.c\	.	2e\	1g
.	4f\	.	.
.	4e\	[2c\	.
4B-\	4d\	.	.
=10	=10	=10	=10
4A\	1c	2c\]	1a
4G\	.	.	.
2F\	.	2A/	.
2G\	1r	2B-\	2g/
2D\	.	2d\	2f/
1A	1c	2c\	1e
.	.	[2A/	.
=11	=11	=11	=11
2.D\	1d	2A/]	2d/
.	.	2.f\	2.a/
4E\	.	.	.
2F\	2c\	.	.
.	.	4e\	4g/
2G\	2B-\	2.d\	1g
1D	1A	.	.
.	.	4c\	.
.	.	2A/	2f#i/
=12	=12	=12	=12
0.Gl	0.Gl	0.Gl	0.gl
!!LO:LB:i:g=z
=13||	=13||	=13||	=13||
*>B	*>B	*>B	*>B
*clefF4	*clefGv2	*clefGv2	*clefG2
*k[b-]	*k[b-]	*k[b-]	*k[b-]
*M2/1	*M2/1	*M2/1	*M2/1
*met(C|)	*met(C|)	*met(C|)	*met(C|)
!!section: Agnus Dei II
!!!OMD: Agnus Dei II
0r	0r	1.d	1a
.	.	.	1b-
.	.	2e\	.
=14	=14	=14	=14
0r	0r	1f	1a
.	.	1d	[1dd
=15	=15	=15	=15
0r	0r	0e	2dd\]
.	.	.	4cc\
.	.	.	4b-\
.	.	.	4cc\
.	.	.	4b-\
.	.	.	4a/
.	.	.	4g/
=16	=16	=16	=16
0r	1d	1d	1f
.	1e	2.c\	1g
.	.	4B-\	.
=17	=17	=17	=17
0r	1d	0G	0b-i
.	[1g	.	.
=18	=18	=18	=18
0r	2g\]	0d	0a
.	4f\	.	.
.	4e\	.	.
.	4f\	.	.
.	4e\	.	.
.	4d\	.	.
.	4c\	.	.
=19	=19	=19	=19
0r	1B-	1G	0r
.	1c	1A	.
=20	=20	=20	=20
0r	0e-i	1G	0r
.	.	[1c	.
=21	=21	=21	=21
1r	0d	1c]	0r
1G	.	1B-	.
=22	=22	=22	=22
1A	0r	1c	0r
1c	.	1e-i	.
=23	=23	=23	=23
1.B-	0r	0d	1r
.	.	.	1g
4A\	.	.	.
4G\	.	.	.
=24	=24	=24	=24
0F	0r	1r	1a
.	.	1c	1cc
=25	=25	=25	=25
0r	0r	2.d\	2b-\
.	.	.	1a
.	.	4e\	.
.	.	2f\	.
.	.	2e\	[2g/
=26	=26	=26	=26
0r	1r	2c\	2g/]
.	.	2d\	2f/
.	1c	1A	1e
=27	=27	=27	=27
1r	1d	0D	0d
1d	1f	.	.
=28	=28	=28	=28
2c\	2e\	0r	0r
2d\	1d	.	.
2B-\	.	.	.
[2A\	[2c\	.	.
=29	=29	=29	=29
2A\]	2c\]	0r	0r
1G	2B-\	.	.
.	1A	.	.
2F#i\	.	.	.
=30	=30	=30	=30
0G	0G	1B-	1r
.	.	1G	1dd
=31	=31	=31	=31
1r	0r	1A	2cc\
.	.	.	2a/
1G	.	1G	1b-
=32	=32	=32	=32
2F\	0r	1r	1a
2D\	.	.	.
1E	.	1G	1g
=33	=33	=33	=33
1D	1r	2A/	2f/
.	.	2B-\	2d/
2r	1g	1c	1e
2C/	.	.	.
=34	=34	=34	=34
2D\	2f\	1r	1d
2BB-/	2d\	.	.
1C	1e	1c	2r
.	.	.	2g/
=35	=35	=35	=35
2D\	1d	2A/	2f/
2BB-/	.	2B-\	1b-i
1F	1c	2c\	.
.	.	2A/	[2a/
=36	=36	=36	=36
2G\	2B-\	2B-\	2a/]
2E\	2G/	2c\	1g
1D	1A	1d	.
.	.	.	2f#i/
=37	=37	=37	=37
0Gl	0Gl	0dl	0gl
!!LO:TX:i:Y=40:rj:t=[Agnus Dei III ut supra]
==	==	==	==
*-	*-	*-	*-
!!!RDF**kern: l=long note in original notation
!!!RDF**kern: i=editorial accidental
!!!RDF**kern: V=start of tuplet marker
!!!RDF**kern: Z=end of tuplet marker
!!!ENC:	Jesse Rodin; Victoria Chang 2012/02/11
!!!END:	2012/02/11/
!!!EED:	Jesse Rodin
!!!EEV:	2012/08/29/
!!attribution-level@Jos: 4 (questionable)
!!!ONB:	Translated from MusicXML and edited on 2012/08/29/ by Craig Sapp
!!muse2ps: T^@{OPR}^u^@{ONM}{. }@{OTL}^C^@{COA}?\n@{SCT}^i2I150v85,85,85,150Q8c120
